modules/feathericon/icons/users.svg

<?xml version="1.0" encoding="UTF-8"?>
<svg width="14px" height="10px" viewBox="0 0 14 10" version="1.1" xmlns="http://www.w3.org/2000/svg" xmlns:xlink="http://www.w3.org/1999/xlink">
    <!-- Generator: sketchtool 48.1 (47250) - http://www.bohemiancoding.com/sketch -->
    <title>users</title>
    <desc>Created with sketchtool.</desc>
    <defs></defs>
    <g id="web-app" stroke="none" stroke-width="1" fill="none" fill-rule="evenodd">
        <g id="users" fill="#000000">
            <path d="M7.31064265,7.99821543 L0.00164886317,8 L0,7.33333333 C0.00164886317,6.52350099 2,5.33333333 4,5.33333333 C6,5.33333333 8,6.52666664 8,7.33333333 L8,7.69834294 C8.61071822,7.47694616 9.30525963,7.33333333 10,7.33333333 C12,7.33333333 14,8.52666664 14,9.33333333 L14,9.99804711 L6.00164886,10 L6,9.33333333 C6.00084624,8.91770562 6.52762748,8.4018969 7.31064265,7.99821543 Z M3.99999999,4 C2.8954305,4 1.99999999,3.1045695 1.99999999,2 C1.99999999,0.8954305 2.8954305,0 3.99999999,0 C5.10456949,0 5.99999999,0.8954305 5.99999999,2 C5.99999999,3.1045695 5.10456949,4 3.99999999,4 Z M9.99999999,6 C8.8954305,6 7.99999999,5.1045695 7.99999999,4 C7.99999999,2.8954305 8.8954305,2 9.99999999,2 C11.1045695,2 12,2.8954305 12,4 C12,5.1045695 11.1045695,6 9.99999999,6 Z" id="Shape"></path>
        </g>
    </g>
</svg>

<svg width="14" height="10" xmlns="http://www.w3.org/2000/svg"><path d="M7.31 7.998L.003 8 0 7.333c.002-.81 2-2 4-2s4 1.194 4 2v.365a5.958 5.958 0 0 1 2-.365c2 0 4 1.194 4 2v.665L6.002 10 6 9.333c0-.415.528-.931 1.31-1.335zM4 4a2 2 0 1 1 0-4 2 2 0 0 1 0 4zm6 2a2 2 0 1 1 0-4 2 2 0 0 1 0 4z" fill="#000" fill-rule="evenodd"/></svg>
